static/images/illustrations/google-my-business-feature.svg

<svg height="123" viewBox="0 0 175 123" width="175" xmlns="http://www.w3.org/2000/svg" xmlns:xlink="http://www.w3.org/1999/xlink"><mask id="a" fill="#fff"><path d="m0 0h46v30h-46z" fill="#fff" fill-rule="evenodd"/></mask><g fill="none" fill-rule="evenodd"><g transform="translate(1 4)"><path d="m156.1572 109.478h-140.858v-101.568c0-4.005 3.247-7.251 7.252-7.251h133.606z" fill="#bbc9d5"/><path d="m27.7036 97.6499v-68.743h117.193v68.743h-110.857" fill="#e1e2e2"/><path d="m27.7036 28.561v-16.098h117.193v16.098h-110.857" fill="#6f93ad"/><path d="m135.9653 45.5522v52.098h-35.174v-57.877h35.174" fill="#fff"/><path d="m86.453 97.877h-49.453v-57.877h57.461v57.877" fill="#fff"/><path d="m129.0908 76.5971c-5.87 0-6.649 2.536-7.907 5.358-1.001 2.247-4.515 3.832-8.333 4.594-3.894.777-5.191 3.804-5.191 6.122h21.617z" fill="#bbc9d5"/><path d="m164.8261 118.1264h-159.58c-2.772 0-5.018-2.247-5.018-5.019v-4.279h170.825v3.071c0 3.439-2.788 6.227-6.227 6.227" fill="#46799a"/><path d="m96.9213 113.477h-22.562c-2.14 0-3.874-1.734-3.874-3.874v-.774h30.31v.774c0 2.14-1.734 3.874-3.874 3.874" fill="#204a69"/><path d="m148.871 28.811c-10.393.866-20.79.864-31.186.969l-31.19.308-31.191.038c-10.397.01-20.793.129-31.195-.623l-.003-.5c10.393-.867 20.79-.864 31.186-.97l31.19-.307 31.191-.039c10.397-.01 20.794-.126 31.195.624z" fill="#204a69"/><g transform="translate(107 49)"><g fill="#bbc9d5"><path d="m.826 14.185h5.189v-4.191h-5.189z"/><path d="m8.644 12.469h5.189v-6.475h-5.189z"/><path d="m16.463 9.994h5.189v-9.768h-5.189z"/></g><path d="m.826 18.335h5.189v-3.15h-5.189z" fill="#00be28"/><path d="m8.644 18.335h5.189v-4.866h-5.189z" fill="#00be28"/><path d="m16.463 18.335h5.189v-7.342h-5.189z" fill="#00be28"/></g></g><path d="m44 61.9250011h46v-12.0861339h-46z" fill="#bbc9d5"/><path d="m37.7805459 30h-37.7805459v-30h46v21.0092005c0 4.9639826-3.6804693 8.9907995-8.2194541 8.9907995" fill="#84a5bc" mask="url(#a)" opacity=".499888" transform="translate(44 67)"/></g></svg>

<svg width="175px" height="123px" viewBox="0 0 175 123" version="1.1" xmlns="http://www.w3.org/2000/svg" xmlns:xlink="http://www.w3.org/1999/xlink">
    <defs>
        <polygon id="path-1" points="0 0 46 0 46 30 0 30"></polygon>
    </defs>
    <g id="google-my-business-feature" stroke="none" stroke-width="1" fill="none" fill-rule="evenodd">
        <g id="Laptop" transform="translate(1.000000, 4.000000)">
            <path d="M156.1572,109.478 L15.2992,109.478 L15.2992,7.91 C15.2992,3.905 18.5462,0.659 22.5512,0.659 L156.1572,0.659 L156.1572,109.478 Z" id="Fill-53" fill="#BBC9D5"></path>
            <polyline id="Fill-54" fill="#E1E2E2" points="27.7036 97.6499 27.7036 28.9069 144.8966 28.9069 144.8966 97.6499 34.0396 97.6499"></polyline>
            <polyline id="Fill-55" fill="#6F93AD" points="27.7036 28.561 27.7036 12.463 144.8966 12.463 144.8966 28.561 34.0396 28.561"></polyline>
            <polyline id="Fill-56" fill="#FFFFFF" points="135.9653 45.5522 135.9653 97.6502 100.7913 97.6502 100.7913 39.7732 135.9653 39.7732"></polyline>
            <polyline id="Fill-63" fill="#FFFFFF" points="86.453 97.877 37 97.877 37 40 94.461 40 94.461 97.877"></polyline>
            <path d="M129.0908,76.5971 C123.2208,76.5971 122.4418,79.1331 121.1838,81.9551 C120.1828,84.2021 116.6688,85.7871 112.8508,86.5491 C108.9568,87.3261 107.6598,90.3531 107.6598,92.6711 L129.2768,92.6711 L129.0908,76.5971 Z" id="Fill-64" fill="#BBC9D5"></path>
            <path d="M164.8261,118.1264 L5.2461,118.1264 C2.4741,118.1264 0.2281,115.8794 0.2281,113.1074 L0.2281,108.8284 L171.0531,108.8284 L171.0531,111.8994 C171.0531,115.3384 168.2651,118.1264 164.8261,118.1264" id="Fill-66" fill="#46799A"></path>
            <path d="M96.9213,113.477 L74.3593,113.477 C72.2193,113.477 70.4853,111.743 70.4853,109.603 L70.4853,108.829 L100.7953,108.829 L100.7953,109.603 C100.7953,111.743 99.0613,113.477 96.9213,113.477" id="Fill-67" fill="#204A69"></path>
            <path d="M148.871,28.811 C138.478,29.677 128.081,29.675 117.685,29.78 L86.495,30.088 L55.304,30.126 C44.907,30.136 34.511,30.255 24.109,29.503 L24.106,29.003 C34.499,28.136 44.896,28.139 55.292,28.033 L86.482,27.726 L117.673,27.687 C128.07,27.677 138.467,27.561 148.868,28.311 L148.871,28.811 Z" id="Fill-75" fill="#204A69"></path>
            <g id="Group" transform="translate(107.000000, 49.000000)">
                <polygon id="Fill-7" fill="#BBC9D5" points="0.826 14.185 6.015 14.185 6.015 9.994 0.826 9.994"></polygon>
                <polygon id="Fill-8" fill="#BBC9D5" points="8.644 12.469 13.833 12.469 13.833 5.994 8.644 5.994"></polygon>
                <polygon id="Fill-9" fill="#BBC9D5" points="16.463 9.994 21.652 9.994 21.652 0.226 16.463 0.226"></polygon>
                <polygon id="Fill-10" fill="#016087" points="0.826 18.335 6.015 18.335 6.015 15.185 0.826 15.185"></polygon>
                <polygon id="Fill-11" fill="#016087" points="8.644 18.335 13.833 18.335 13.833 13.469 8.644 13.469"></polygon>
                <polygon id="Fill-12" fill="#016087" points="16.463 18.335 21.652 18.335 21.652 10.993 16.463 10.993"></polygon>
            </g>
        </g>
        <polygon id="Fill-1" fill="#BBC9D5" points="44 61.9250011 90 61.9250011 90 49.8388672 44 49.8388672"></polygon>
        <g id="Group-4" opacity="0.499888393" transform="translate(44.000000, 67.000000)">
            <mask id="mask-2" fill="white">
                <use xlink:href="#path-1"></use>
            </mask>
            <g id="Clip-3"></g>
            <path d="M37.7805459,30 L0,30 L0,0 L46,0 L46,21.0092005 C46,25.9731831 42.3195307,30 37.7805459,30" id="Fill-2" fill="#84A5BC" mask="url(#mask-2)"></path>
        </g>
    </g>
</svg>
